packages/nodes-base/nodes/Plivo/plivo.svg

<svg xmlns="http://www.w3.org/2000/svg" xmlns:xlink="http://www.w3.org/1999/xlink" viewBox="40 30 170 170">
  <defs>
    <polygon id="plivo-icon-a" points="0 .549 152 .549 152 119 0 119"/>
  </defs>
  <g fill="none" fill-rule="evenodd">
    <rect width="250" height="218" fill="#FFF" fill-opacity=".01"/>
    <g transform="translate(49 49.451)">
      <mask id="plivo-icon-b" fill="#fff">
        <use xlink:href="#plivo-icon-a"/>
      </mask>
      <path fill="#43A046" d="M75.7352,0.548254922 C62.8312,0.5936 50.9272,4.8406 41.3112,11.9896 C31.6952,19.1396 24.3682,29.1916 20.6162,40.8426 C20.4632,41.3176 20.2312,41.7556 19.9322,42.1436 C19.6342,42.5306 19.2692,42.8676 18.8512,43.1396 C12.9112,47.0036 8.0222,52.3416 4.7122,58.6356 C1.4022,64.9306 -0.3278,72.1816 0.0512,79.8716 C0.6002,90.9886 5.6532,100.7906 13.3512,107.8026 C21.0492,114.8156 31.3932,119.0376 42.5252,118.999854 L76.1422,118.999854 L109.7582,118.999854 C120.8902,118.9616 131.2052,114.6106 138.8542,107.4866 C146.5042,100.3646 151.4892,90.4716 151.9622,79.3496 C152.2882,71.6566 150.5082,64.4176 147.1552,58.1466 C143.8022,51.8746 138.8762,46.5706 132.9112,42.7476 C132.4912,42.4786 132.1242,42.1446 131.8222,41.7586 C131.5212,41.3736 131.2862,40.9376 131.1302,40.4626 C127.2982,28.8376 119.9022,18.8366 110.2362,11.7536 C100.5722,4.6706 88.6392,0.5046 75.7352,0.548254922 M75.7862,15.3263438 C85.3122,15.2936 94.3582,18.4496 101.7062,23.8936 C109.0532,29.3376 114.7042,37.0686 117.4402,46.1866 L118.0322,48.1596 L118.6252,50.1336 C118.7782,50.6466 119.0262,51.1206 119.3512,51.5346 C119.6752,51.9486 120.0772,52.3026 120.5382,52.5746 L122.3142,53.6216 L124.0892,54.6676 C128.3502,57.1806 131.7232,60.6916 133.9832,64.8106 C136.2432,68.9296 137.3912,73.6576 137.2022,78.6046 C136.9262,85.7856 133.7002,92.1526 128.7452,96.7326 C123.7902,101.3116 117.1082,104.1006 109.9212,104.1246 L76.0912,104.2406 L42.2612,104.357769 C35.0742,104.3826 28.3732,101.6386 23.3872,97.0946 C18.4012,92.5496 15.1302,86.2036 14.8062,79.0256 C14.5822,74.0796 15.6972,69.3446 17.9292,65.2096 C20.1622,61.0746 23.5112,57.5406 27.7552,54.9986 L29.5232,53.9406 L31.2902,52.8816 C31.7502,52.6066 32.1492,52.2496 32.4712,51.8336 C32.7932,51.4166 33.0372,50.9416 33.1882,50.4266 L33.7662,48.4486 L34.3452,46.4716 C37.0192,37.3356 42.6152,29.5656 49.9262,24.0706 C57.2362,18.5776 66.2592,15.3596 75.7862,15.3263438" mask="url(#plivo-icon-b)"/>
    </g>
    <path fill="#43A046" d="M113.2811 100.651C113.2811 101.521 112.9311 102.309 112.3631 102.88 111.7951 103.453 111.0091 103.809 110.1391 103.814L106.9651 103.826 103.7901 103.837C102.9211 103.837 102.1331 103.486 101.5611 102.918 100.9891 102.35 100.6331 101.564 100.6271 100.695L100.6161 97.52 100.606098 94.345C100.6051 93.476 100.9561 92.688 101.5241 92.116 102.0921 91.545 102.8781 91.188 103.7471 91.182L106.9221 91.172 110.0961 91.161C110.9661 91.161 111.7541 91.511 112.3251 92.079 112.8981 92.647 113.2541 93.433 113.2591 94.302L113.2701 97.477 113.2811 100.651zM131.2421 100.651C131.2421 101.521 130.8921 102.309 130.3241 102.88 129.7561 103.453 128.9701 103.809 128.1011 103.814L124.9261 103.826 121.7521 103.837C120.8821 103.837 120.0941 103.486 119.5221 102.918 118.9501 102.35 118.5941 101.564 118.5891 100.695L118.5771 97.52 118.567098 94.345C118.5661 93.476 118.9171 92.688 119.4851 92.116 120.0531 91.545 120.8391 91.188 121.7081 91.182L124.8831 91.172 128.0571 91.161C128.9271 91.161 129.7151 91.511 130.2871 92.079 130.8591 92.647 131.2151 93.433 131.2211 94.302L131.2311 97.477 131.2421 100.651zM149.2035 100.653C149.2035 101.522 148.8535 102.31 148.2855 102.882 147.7175 103.454 146.9315 103.81 146.0615 103.816L142.8875 103.827 139.7125 103.838019C138.8425 103.841 138.0535 103.49 137.4805 102.922 136.9085 102.353 136.5525 101.566 136.5495 100.696L136.5385 97.521 136.528466 94.346C136.5245 93.476 136.8745 92.687 137.4435 92.115 138.0125 91.543 138.7985 91.187 139.6695 91.184L142.8445 91.173 146.0185 91.162C146.8905 91.139 147.6905 91.472 148.2775 92.029 148.8645 92.586 149.2385 93.367 149.2615 94.239 149.2615 94.25 149.2625 94.26 149.2625 94.271 149.2625 94.282 149.2625 94.293 149.2625 94.303L149.2325 97.478 149.2035 100.653zM113.2889 118.608C113.2889 119.477 112.9389 120.265 112.3709 120.837 111.8029 121.409 111.0169 121.765 110.1469 121.771L106.9729 121.782 103.7979 121.793002C102.9289 121.794 102.1409 121.442 101.5689 120.875 100.9969 120.306 100.6409 119.521 100.6349 118.651L100.6239 115.476 100.613898 112.302C100.6129 111.432 100.9639 110.644 101.5319 110.073 102.0999 109.501 102.8859 109.144 103.7549 109.139L106.9299 109.129 110.1039 109.117C110.9739 109.117 111.7619 109.467 112.3329 110.036 112.9059 110.603 113.2619 111.389 113.2669 112.258L113.2779 115.433 113.2889 118.608zM131.2499 118.608C131.2499 119.477 130.8999 120.265 130.3319 120.837 129.7639 121.409 128.9779 121.765 128.1089 121.771L124.9339 121.782 121.7599 121.793002C120.8899 121.794 120.1019 121.442 119.5299 120.875 118.9579 120.306 118.6019 119.521 118.5969 118.651L118.5849 115.476 118.574898 112.302C118.5739 111.432 118.9249 110.644 119.4929 110.073 120.0609 109.501 120.8469 109.144 121.7159 109.139L124.8909 109.129 128.0649 109.117C128.9349 109.117 129.7229 109.467 130.2949 110.036 130.8669 110.603 131.2229 111.389 131.2289 112.258L131.2389 115.433 131.2499 118.608zM149.2113 118.608C149.2113 119.477 148.8613 120.265 148.2933 120.837 147.7253 121.409 146.9393 121.765 146.0693 121.771L142.8953 121.782 139.7203 121.793019C138.8503 121.796 138.0613 121.446 137.4883 120.877 136.9163 120.308 136.5603 119.522 136.5573 118.651L136.5463 115.476 136.536266 112.302C136.5323 111.431 136.8823 110.642 137.4513 110.07 138.0203 109.498 138.8063 109.142 139.6773 109.139L142.8523 109.129 146.0263 109.117C146.8963 109.117 147.6843 109.467 148.2553 110.036 148.8283 110.603 149.1843 111.389 149.1893 112.258L149.2003 115.433 149.2113 118.608zM113.296819 136.5582C113.2998 137.4282 112.9498 138.2182 112.3808 138.7902 111.8128 139.3632 111.0258 139.7182 110.1548 139.7212L106.9808 139.7322 103.8058 139.743219C102.9358 139.7462 102.1468 139.3962 101.5738 138.8282 101.0018 138.2592 100.6458 137.4722 100.6428 136.6022L100.6318 133.4272 100.621798 130.2522C100.6208 129.3832 100.9718 128.5952 101.5398 128.0232 102.1078 127.4512 102.8938 127.0952 103.7628 127.0892L106.9378 127.0792 110.1118 127.068198C110.9818 127.0672 111.7698 127.4172 112.3408 127.9862 112.9138 128.5542 113.2698 129.3392 113.2748 130.2082L113.2858 133.3832 113.296819 136.5582zM131.257719 136.5582C131.2607 137.4282 130.9107 138.2182 130.3417 138.7902 129.7737 139.3632 128.9867 139.7182 128.1167 139.7212L124.9417 139.7322 121.7677 139.743219C120.8967 139.7462 120.1077 139.3962 119.5347 138.8282 118.9627 138.2592 118.6077 137.4722 118.6047 136.6022L118.5927 133.4272 118.582698 130.2522C118.5817 129.3832 118.9327 128.5952 119.5007 128.0232 120.0687 127.4512 120.8547 127.0952 121.7237 127.0892L124.8987 127.0792 128.0727 127.068198C128.9427 127.0672 129.7307 127.4172 130.3027 127.9862 130.8747 128.5542 131.2307 129.3392 131.2367 130.2082L131.2467 133.3832 131.257719 136.5582zM149.219119 136.5582C149.2221 137.4282 148.8721 138.2182 148.3031 138.7902 147.7351 139.3632 146.9481 139.7182 146.0771 139.7212L142.9031 139.7322 139.7281 139.743219C138.8581 139.7462 138.0691 139.3962 137.4961 138.8282 136.9241 138.2592 136.5681 137.4722 136.5651 136.6022L136.5541 133.4272 136.544066 130.2522C136.5401 129.3822 136.8901 128.5922 137.4591 128.0202 138.0281 127.4482 138.8141 127.0922 139.6851 127.0892L142.8601 127.0792 146.0341 127.068198C146.9041 127.0672 147.6921 127.4172 148.2631 127.9862 148.8361 128.5542 149.1921 129.3392 149.1971 130.2082L149.2081 133.3832 149.219119 136.5582z"/>
  </g>
</svg>

<svg xmlns="http://www.w3.org/2000/svg" xmlns:xlink="http://www.w3.org/1999/xlink" viewBox="40 30 170 170"><defs><path id="a" d="M0 .549h152V119H0z"/></defs><g fill="none" fill-rule="evenodd"><path fill="#FFF" fill-opacity=".01" d="M0 0h250v218H0z"/><g transform="translate(49 49.451)"><mask id="b" fill="#fff"><use xlink:href="#a"/></mask><path fill="#43A046" d="M75.735.548C62.831.594 50.927 4.841 41.311 11.99c-9.616 7.15-16.943 17.202-20.695 28.853a4.275 4.275 0 0 1-.684 1.3 4.372 4.372 0 0 1-1.08.997 41.635 41.635 0 0 0-14.14 15.496C1.402 64.93-.328 72.182.052 79.872c.548 11.117 5.601 20.919 13.3 27.93 7.697 7.014 18.041 11.236 29.173 11.198h67.233a42.937 42.937 0 0 0 29.096-11.513c7.65-7.122 12.635-17.015 13.108-28.137.326-7.693-1.454-14.932-4.807-21.203a41.637 41.637 0 0 0-14.244-15.4 4.378 4.378 0 0 1-1.089-.988 4.257 4.257 0 0 1-.692-1.296c-3.832-11.625-11.228-21.626-20.894-28.71C100.572 4.672 88.64.506 75.736.549m.05 14.778c9.526-.032 18.572 3.124 25.92 8.568 7.347 5.444 12.998 13.175 15.734 22.293l.592 1.973.593 1.974a4.25 4.25 0 0 0 1.913 2.441l1.776 1.047 1.775 1.046c4.261 2.513 7.634 6.024 9.894 10.143 2.26 4.119 3.408 8.847 3.22 13.794-.277 7.18-3.503 13.548-8.458 18.128a27.908 27.908 0 0 1-18.824 7.392l-33.83.116-33.83.117a27.913 27.913 0 0 1-18.874-7.263c-4.986-4.545-8.257-10.891-8.58-18.07-.225-4.945.89-9.68 3.122-13.815 2.233-4.135 5.582-7.67 9.826-10.211l1.768-1.058 1.767-1.06a4.254 4.254 0 0 0 1.898-2.454l.578-1.978.58-1.977c2.673-9.136 8.27-16.906 15.58-22.401 7.31-5.493 16.333-8.711 25.86-8.745" mask="url(#b)"/></g><path fill="#43A046" d="M113.281 100.651c0 .87-.35 1.658-.918 2.229a3.147 3.147 0 0 1-2.224.934l-3.174.012-3.175.011a3.154 3.154 0 0 1-2.229-.919 3.155 3.155 0 0 1-.934-2.223l-.01-3.175-.01-3.175a3.159 3.159 0 0 1 3.141-3.163l3.174-.01 3.174-.011c.87 0 1.658.35 2.23.918.572.568.928 1.354.933 2.223l.011 3.175.011 3.174zm17.961 0c0 .87-.35 1.658-.918 2.229a3.146 3.146 0 0 1-2.223.934l-3.175.012-3.174.011c-.87 0-1.658-.351-2.23-.919a3.15 3.15 0 0 1-.933-2.223l-.012-3.175-.01-3.175a3.159 3.159 0 0 1 3.141-3.163l3.175-.01 3.174-.011c.87 0 1.658.35 2.23.918.572.568.928 1.354.934 2.223l.01 3.175.011 3.174zm17.962.002c0 .869-.35 1.657-.918 2.229a3.155 3.155 0 0 1-2.225.934l-3.174.011-3.174.011a3.146 3.146 0 0 1-2.232-.916 3.146 3.146 0 0 1-.931-2.226l-.012-3.175-.01-3.175a3.133 3.133 0 0 1 .916-2.231 3.145 3.145 0 0 1 2.226-.931l3.175-.011 3.173-.011a3.152 3.152 0 0 1 2.26.867c.587.557.96 1.338.984 2.21v.064l-.03 3.175-.029 3.175zm-35.915 17.955c0 .869-.35 1.657-.918 2.229a3.155 3.155 0 0 1-2.224.934l-3.174.011-3.175.011a3.153 3.153 0 0 1-2.23-.918 3.157 3.157 0 0 1-.933-2.224l-.011-3.175-.01-3.174c-.001-.87.35-1.658.918-2.229a3.15 3.15 0 0 1 2.223-.934l3.175-.01 3.174-.012c.87 0 1.658.35 2.229.919.573.567.929 1.353.934 2.222l.01 3.175.012 3.175zm17.96 0c0 .869-.35 1.657-.917 2.229a3.155 3.155 0 0 1-2.223.934l-3.175.011-3.174.011a3.154 3.154 0 0 1-2.23-.918 3.152 3.152 0 0 1-.933-2.224l-.012-3.175-.01-3.174c-.001-.87.35-1.658.918-2.229a3.15 3.15 0 0 1 2.223-.934l3.175-.01 3.174-.012c.87 0 1.658.35 2.23.919a3.15 3.15 0 0 1 .934 2.222l.01 3.175.01 3.175zm17.962 0c0 .869-.35 1.657-.918 2.229a3.155 3.155 0 0 1-2.224.934l-3.174.011-3.175.011a3.142 3.142 0 0 1-2.232-.916 3.145 3.145 0 0 1-.93-2.226l-.012-3.175-.01-3.174a3.134 3.134 0 0 1 .915-2.232 3.145 3.145 0 0 1 2.226-.931l3.175-.01 3.174-.012c.87 0 1.658.35 2.23.919.572.567.928 1.353.933 2.222l.011 3.175.011 3.175zm-35.914 17.95a3.14 3.14 0 0 1-.916 2.232 3.139 3.139 0 0 1-2.226.931l-3.174.011-3.175.011a3.145 3.145 0 0 1-2.232-.915 3.146 3.146 0 0 1-.931-2.226l-.011-3.175-.01-3.175a3.15 3.15 0 0 1 .918-2.229 3.155 3.155 0 0 1 2.223-.934l3.175-.01 3.174-.01a3.142 3.142 0 0 1 2.229.917c.573.568.929 1.353.934 2.222l.01 3.175.012 3.175zm17.96 0a3.14 3.14 0 0 1-.915 2.232 3.138 3.138 0 0 1-2.225.931l-3.175.011-3.174.011a3.146 3.146 0 0 1-3.163-3.14l-.012-3.176-.01-3.175a3.15 3.15 0 0 1 .918-2.229 3.155 3.155 0 0 1 2.223-.934l3.175-.01 3.174-.01a3.146 3.146 0 0 1 2.23.917c.572.568.928 1.353.934 2.222l.01 3.175.01 3.175zm17.962 0a3.14 3.14 0 0 1-.916 2.232 3.139 3.139 0 0 1-2.226.931l-3.174.011-3.175.011a3.145 3.145 0 0 1-2.232-.915 3.146 3.146 0 0 1-.93-2.226l-.012-3.175-.01-3.175c-.004-.87.346-1.66.915-2.232a3.145 3.145 0 0 1 2.226-.93l3.175-.01 3.174-.012a3.142 3.142 0 0 1 2.23.918c.572.568.928 1.353.933 2.222l.011 3.175.011 3.175z"/></g></svg>
